X: 205
T:Twin Sisters
C:as played by the Reed Island Rounders
M:4/4
F:http://blackrosetheband.googlepages.com/ABCTUNES.ABC May 2009
R:Reel
K:D
e2a2a3g|e2f2 gfgd|e2a2-abaf|gfec A2 ea|
e2a2a3g|e2f2 gfgf|e2a2-abaf|gfec A2 [eA]A||
edBA G2 G2-|GABd e2d2|edBA G2 BB|d B-B2 A2 [e2A2]-|
[eA]dBA G2 G2-|GABd e2d2|edBA G2 BB|d B-B2 A2-[e2A2]|
edBA G2G2|edBd e2>d2|edBA G2 BB|d B-B2 A2 [e2A2]-|
[eA]dBA G2 G2|edBd e2d2|edBA G2 BB|d B-B2 A2 A2||
|:E2A2[A3E3]G|E2F2 GFGF|E2A2-ABAG|EDED A,2A,2:||
|:EDB,A, G,2G,2|EDB,D E3D|EDB,A, G,2 B,B,|DB,3 [E4A,4]:|
EDB,A, G,2 [D2G,2]-|[DG,]DB,D [E2G,2][D2G,2]|EDB,A, G,2 B,B,|DB,3 [E4A,4]:||

